X:118
T:Hunting The Hare. JBs.118
S:Jas.Blackshaw MS, 1837, N.Shropshire
A:North Shropshire
Z:T. Weatherall 2006
M:6/8
L:1/8
Q:3/8=120
R:Jig
K:F
e|f2F ABc|dgf edc|f2F ABc|dfe f2:|!
|:g|acâ€™a acâ€™a|gbg gbg|acâ€™a acâ€™a|gecc2g|!
acâ€™a acâ€™a|gbg gbg |acâ€™a gfe|gff f2:|

